fs/paint_brush_arrow_up_20_regular.svg

<svg viewBox="0 0 20 20" fill="none" xmlns="http://www.w3.org/2000/svg" height="1em" width="1em">
  <path d="M8.99916 4V7.5C8.99916 7.77614 8.77531 8 8.49916 8H6.99916C6.44688 8 5.99916 8.44772 5.99916 9V10H13.9992V9C13.9992 8.44772 13.5514 8 12.9992 8H11.4992C11.223 8 10.9992 7.77614 10.9992 7.5V4C10.9992 3.44772 10.5515 3 9.99917 3C9.44688 3 8.99916 3.44772 8.99916 4ZM14.9992 9V10.4708C14.9997 10.4805 15 10.4902 15 10.5C15 10.5098 14.9997 10.5195 14.9992 10.5292V12.0851C14.6762 11.9714 14.322 11.9716 13.9992 12.0857V11H5.99916V11.5C5.99916 13.3184 5.60958 14.8756 5.22113 15.9773C5.07867 16.3813 4.93593 16.7254 4.81172 17H6.18483L6.20227 16.9623C6.29349 16.7647 6.41482 16.4917 6.53576 16.1893C6.65712 15.8859 6.77556 15.5593 6.86299 15.2533C6.95259 14.9396 7 14.6801 7 14.5C7 14.2239 7.22386 14 7.5 14C7.77614 14 8 14.2239 8 14.5C8 14.8199 7.92241 15.1854 7.82451 15.528C7.72444 15.8782 7.59288 16.2391 7.46424 16.5607C7.40184 16.7167 7.33954 16.8649 7.28094 17H8.51802C8.57184 16.8848 8.63621 16.7409 8.70033 16.5835C8.86788 16.1719 8.99674 15.7542 8.99674 15.5C8.99674 15.2239 9.2206 15 9.49674 15C9.77289 15 9.99675 15.2239 9.99675 15.5C9.99675 15.9712 9.79228 16.5534 9.6265 16.9606L9.61033 17H13V18H8.83974C8.83303 18.0001 8.82631 18.0001 8.81958 18H6.51009C6.50312 18.0001 6.49613 18.0001 6.48914 18H4C3.81995 18 3.6538 17.9032 3.56502 17.7466C3.47634 17.5901 3.47852 17.3981 3.57068 17.2437L3.57283 17.2401L3.58284 17.2227C3.59213 17.2065 3.60652 17.181 3.62528 17.1465C3.66281 17.0776 3.71781 16.973 3.78449 16.8357C3.91792 16.561 4.09772 16.1562 4.27803 15.6448C4.63917 14.6205 4.99916 13.1777 4.99916 11.5V9C4.99916 7.89543 5.89459 7 6.99916 7H7.99916V4C7.99916 2.89543 8.8946 2 9.99917 2C11.1037 2 11.9992 2.89543 11.9992 4V7H12.9992C14.1037 7 14.9992 7.89543 14.9992 9ZM15 14.7071V18.5C15 18.7761 14.7761 19 14.5 19C14.2239 19 14 18.7761 14 18.5V14.7071L12.8536 15.8536C12.6583 16.0488 12.3417 16.0488 12.1464 15.8536C11.9512 15.6583 11.9512 15.3417 12.1464 15.1464L14.1464 13.1464C14.3417 12.9512 14.6583 12.9512 14.8536 13.1464L16.8536 15.1464C17.0488 15.3417 17.0488 15.6583 16.8536 15.8536C16.6583 16.0488 16.3417 16.0488 16.1464 15.8536L15 14.7071Z" fill="#212121"/>
</svg>

<svg viewBox="0 0 20 20" fill="none" xmlns="http://www.w3.org/2000/svg" height="1em" width="1em">
  <path d="M9 4v3.5a.5.5 0 0 1-.5.5H7a1 1 0 0 0-1 1v1h8V9a1 1 0 0 0-1-1h-1.5a.5.5 0 0 1-.5-.5V4a1 1 0 1 0-2 0Zm6 5v1.47a.566.566 0 0 1 0 .06v1.555a1.506 1.506 0 0 0-1 0V11H6v.5A13.565 13.565 0 0 1 4.811 17h1.373l.017-.038c.091-.197.213-.47.334-.773.121-.303.24-.63.327-.936.09-.313.137-.573.137-.753a.5.5 0 0 1 1 0c0 .32-.078.685-.175 1.028-.1.35-.232.711-.36 1.033-.063.156-.125.304-.184.439h1.237a9.16 9.16 0 0 0 .182-.416c.168-.412.297-.83.297-1.084a.5.5 0 0 1 1 0c0 .471-.205 1.053-.37 1.46L9.61 17H13v1H4a.5.5 0 0 1-.43-.756l.003-.004.01-.017.042-.076a7.56 7.56 0 0 0 .16-.311A12.566 12.566 0 0 0 5 11.5V9a2 2 0 0 1 2-2h1V4a2 2 0 0 1 4 0v3h1a2 2 0 0 1 2 2Zm0 5.707V18.5a.5.5 0 0 1-1 0v-3.793l-1.146 1.147a.5.5 0 0 1-.708-.708l2-2a.5.5 0 0 1 .708 0l2 2a.5.5 0 0 1-.708.708L15 14.707Z" fill="#212121"/>
</svg>
